X: 257
T: Ben Neler Çekmekteyim
C: Zekâî Dede
O: Turkey
F: http://compmusic.upf.edu/node/140
N: mahur--sarki--sarkidevrirevani--ben_neler--zekai_dede
N: makam= mahur
N: form= sarki
N: usul= sarkidevrirevani = 13/4
M: 13/4
L: 1/16
K: C ^9/8f   
Q: 1/4=54
%%MIDI tuningsystem comma53
d4 g8 z2a2 g2f2 fed2 efga f2g6 f2g2 abag f2g4z2  | 
w:  Ben  ne ler  *  *  *  *  *  *  *  *  *  çek  | 
g4 c'6b2 b3a a3g g3f f3e z2ef g2fe f3e a3g agfe d4  | 
w:  mek te *  yim  *  *  *  *  *  *  *  bil *  *  *  *  *  *  *  *  sen   | 
d4 e4 f4 z2g4a2 b2ag d'c'ba abag g4 fga2 ^3/4c'_7/8bag f2g6  | 
w:  dîl_ i  *  â *  vâ *  *  *  *  *  re den    | 
agfg a6c'2 a2g4{a}gf f3e e2a2 a3g g3f f3e (3e2f2g2 agfe d2e=f  | 
w:  Bir  *  *  *  de  *  *  sen  *  *  *  *  *  *  *  yâ  | 
ed^cd e6g2 e2d4{e}d=c c2cB B3A z2AB c2BA B3A d4 d^c_7/8BA G4  | 
w:  re  *  *  *  a *  *  çar *  *  *  *  *  *  *  *  sın  *  *  *  *  *  *  *  gam  | 
AGFG A8 z2c2 B2A2 AGGF E2FG F2G8-G2 dcBd B2c6  | 
w:  ze  *  *  *  i  hûn  *  *  hâ *  *  *  *  re *  den  *  ah    | 
G2c2 c8 z2d2 c2B2 (3B2A2G2 ABcd B2c6 (3B2c2d2 f_7/8edc B2c4d2  | 
w:  İn *  ti kam  *  *  *  *  *  *  *  *  *  al  | 
{_7/8e}dcBc d8 z2=e2 e2d2 e2f2 g2ab bagf e2e2 e3d g2fe gfef e2f2  | 
w:  *  mak *  *  *  sa  kas *  *  tın  *  *  *  *  â  | 
d4 e4 {g}f4 z2g4a2 b2ag d'c'ba abag g4 fga2 ^3/4c'_7/8bag f2g6  | 
w:  şık_ ı  *  *  bî *  çâ *  *  *  *  *  re den    | 
agfg a6c'2 a2g4{a}gf f3e e2a2 a3g g3f f3e (3e2f2g2 agfe d2e=f  | 
w:  Bir  *  *  *  de  *  *  sen  *  *  *  *  *  *  *  yâ  | 
ed^cd e6g2 e2d4{e}d=c c2cB B3A z2AB c2BA B3A d4 d^c_7/8BA G4  | 
w:  re  *  *  *  a *  *  çar *  *  *  *  *  *  *  *  sın  *  *  *  *  *  *  *  gam  | 
AGFG A8 z2c2 B2A2 AGGF E2FG F2G8-G2 |
w:  ze  *  *  *  i  hûn  *  *  hâ *  *  *  *  re *  den   | 


